FlatUX/src/svg/Magnavox - Odyssey2-content.svg

<svg enable-background="new 0 0 256 256" viewBox="0 0 256 256" xmlns="http://www.w3.org/2000/svg"><path d="m102.994 12.004h54.852v15.996h-54.852z" fill="#2b3e51"/><path d="m52 62h152v182h-152z" fill="#2b3e51"/><path d="m88 224h20v20h-20z" fill="#223140"/><path d="m190.246 72h-123.636c-3.419 0-6.182 2.36-6.182 5.28v121.44c0 2.92 2.763 5.28 6.182 5.28h123.636c3.419 0 6.182-2.36 6.182-5.28v-121.44c0-2.92-2.763-5.28-6.182-5.28z" fill="#223140"/><path d="m190.246 74c2.306 0 4.182 1.471 4.182 3.28v121.44c0 1.809-1.876 3.28-4.182 3.28h-123.636c-2.306 0-4.182-1.471-4.182-3.28v-121.44c0-1.809 1.876-3.28 4.182-3.28z" fill="#1b80bb"/><g fill="#35495f"><path d="m60.689 17.476s-10.611 46.524-8.382 46.524 23.747 0 23.747 0l3.958-36h25.988v-15.996h-32.803s-11.105-.347-12.508 5.472z"/><path d="m195.311 17.476s10.611 46.524 8.382 46.524-23.747 0-23.747 0l-3.958-36h-25.988v-15.996h32.803s11.105-.347 12.508 5.472z"/></g></svg>

<svg xmlns="http://www.w3.org/2000/svg" viewBox="0 0 256 256"><path fill="#2b3e51" d="M102.994 12.004h54.852V28h-54.852zM52 62h152v182H52z"/><path fill="#223140" d="M88 224h20v20H88zM190.246 72H66.61c-3.419 0-6.182 2.36-6.182 5.28v121.44c0 2.92 2.763 5.28 6.182 5.28h123.636c3.419 0 6.182-2.36 6.182-5.28V77.28c0-2.92-2.763-5.28-6.182-5.28"/><path fill="#1b80bb" d="M190.246 74c2.306 0 4.182 1.471 4.182 3.28v121.44c0 1.809-1.876 3.28-4.182 3.28H66.61c-2.306 0-4.182-1.471-4.182-3.28V77.28c0-1.809 1.876-3.28 4.182-3.28z"/><path fill="#35495f" d="M60.689 17.476S50.078 64 52.307 64h23.747l3.958-36H106V12.004H73.197s-11.105-.347-12.508 5.472m134.622 0S205.922 64 203.693 64h-23.747l-3.958-36H150V12.004h32.803s11.105-.347 12.508 5.472"/></svg>
